X: 73
T: Dong gui gu niang
L: 1/16
M: 2/4
K: F
F2 F G c A2 G [I:setbarnb 1]| 
F2 F G c A2 G | 
F2 G2 c3 d | 
F G F DC4 | 
D F D C A,2 C2 | 
D2 F G A2 C2 | 
D2 F G2< A2 G | 
F2 F G2< c2 f | 
d2 F2D4- | 
D4z4 |]

@@@ Tune index: 8741
